packages/core/src/svgs/tokens/branded/ARV.svg

<svg width="24" height="24" viewBox="0 0 24 24" fill="none" xmlns="http://www.w3.org/2000/svg">
<path d="M15.6063 16.2688L13.7625 13.2501H17.3125L20.0874 17.8813C21.1724 16.3894 21.8235 14.6266 21.9687 12.7879C22.1141 10.9489 21.7481 9.10578 20.911 7.46202C20.074 5.8183 18.7985 4.43813 17.2259 3.47416C15.6532 2.51019 13.8447 2 12 2C10.1554 2 8.34686 2.51019 6.77421 3.47416C5.20156 4.43813 3.92618 5.8183 3.08914 7.46202C2.25209 9.10578 1.88599 10.9489 2.03134 12.7879C2.17669 14.6266 2.82783 16.3894 3.91272 17.8813L12 3.87524L16.6875 12.0001H13.1375L12 9.94387L10.1064 13.2501H12.75L14.5938 16.375H8.3064L6.10644 20.0811C7.81678 21.3315 9.88141 22.0038 12 22C14.1751 22 16.1876 21.3061 17.8312 20.1249L15.6063 16.2688Z" fill="#739574"/>
</svg>

<svg xmlns="http://www.w3.org/2000/svg" width="24" height="24" fill="none" viewBox="0 0 24 24">
    <path fill="#739574" d="m15.606 16.269-1.844-3.019h3.55l2.775 4.631a10 10 0 0 0-2.861-14.407A10 10 0 0 0 3.913 17.881L12 3.875 16.688 12h-3.55L12 9.944l-1.894 3.306h2.644l1.844 3.125H8.306l-2.2 3.706A9.96 9.96 0 0 0 12 22a9.95 9.95 0 0 0 5.831-1.875z"/>
</svg>
